16x16/apps/com.orama_interactive.Pixelorama.svg

<svg height="16" width="16" xmlns="http://www.w3.org/2000/svg"><path d="m4 0v1h-2v1h-1v2h-1v8h1v2h1v1h2v1h8v-1h2v-1h1v-2h1v-8h-1v-2h-1v-1h-2v-1z" fill="#17191e"/><path d="m4 1v1h-2v2h-1v8h1v2h2v1h8v-1h2v-2h1v-8h-1v-2h-2v-1z" fill="#f4f4f7"/><path d="m5 2v12h-1v-1h-1v-1h-1v-8h1v-1h1v-1z" fill="#3465a4"/><path d="m5 2h6v12h-6z" fill="#73d216"/><path d="m11 2v12h1v-1h1v-1h1v-8h-1v-1h-1v-1z" fill="#ef2929"/><path d="m5 3v1h-1v1h-1v6h1v1h1v1h6v-1h1v-1h1v-6h-1v-1h-1v-1z" fill="#17191e"/><path d="m10 10h1v1h-1zm-4-5v1h-1v2h1v1h2v-1h1v-2h-1v-1z" fill="#f4f4f7"/></svg>

<svg width="16" height="16" xmlns="http://www.w3.org/2000/svg"><path d="M4 0v1H2v1H1v2H0v8h1v2h1v1h2v1h8v-1h2v-1h1v-2h1V4h-1V2h-1V1h-2V0H4z" style="fill:#17191e"/><path d="M4 1v1H2v2H1v8h1v2h2v1h8v-1h2v-2h1V4h-1V2h-2V1H4z" style="fill:#f4f4f7"/><path d="M5 2v12H4v-1H3v-1H2V4h1V3h1V2z" style="fill:#3465a4"/><path style="fill:#73d216" d="M5 2h6v12H5z"/><path d="M11 2v12h1v-1h1v-1h1V4h-1V3h-1V2z" style="fill:#ef2929"/><path d="M5 3v1H4v1H3v6h1v1h1v1h6v-1h1v-1h1V5h-1V4h-1V3H5z" style="fill:#17191e"/><path d="M10 10h1v1h-1zM6 5v1H5v2h1v1h2V8h1V6H8V5H6z" style="fill:#f4f4f7"/></svg>
